img/bosquejo.svg

<svg xmlns="http://www.w3.org/2000/svg" viewBox="0 0 64 64" width="512" height="512"><path d="M7 44h40a1 1 0 000-2H7a3 3 0 010-6h4a1 1 0 001-1v-6a1 1 0 00-2 0v5H7a4.98 4.98 0 00-3 1V7a3 3 0 013-3h3v21a1 1 0 002 0V8h37a1 1 0 000-2H12V3a1 1 0 00-1-1H7a5.006 5.006 0 00-5 5v32a5.006 5.006 0 005 5zM57 2h-4a1 1 0 00-1 1v32a1 1 0 001 1h4a3 3 0 010 6h-6a1 1 0 000 2h6a5.006 5.006 0 005-5V7a5.006 5.006 0 00-5-5zm0 32h-3V4h3a3 3 0 013 3v28a4.98 4.98 0 00-3-1z"/><path d="M40 19a1 1 0 00-.375-.781l-10-8a1 1 0 00-1.249 0l-10 8c-.013.011-.018.028-.03.039a2.672 2.672 0 00-.251.33A.98.98 0 0018 19v12a1 1 0 001 1h20a1 1 0 001-1zM24 30v-4h2v4zm14 0H28v-5a1 1 0 00-1-1h-4a1 1 0 00-1 1v5h-2V20h13a1 1 0 000-2H21.851L29 12.281l9 7.2z"/><path d="M30 23v4a1 1 0 001 1h4a1 1 0 001-1v-4a1 1 0 00-1-1h-4a1 1 0 00-1 1zm2 1h2v2h-2zm11 6a1 1 0 000 2h4a1 1 0 000-2h-1V12h1a1 1 0 000-2h-4a1 1 0 000 2h1v18zm-4 10a1 1 0 001-1v-4a1 1 0 00-2 0v1H20v-1a1 1 0 00-2 0v4a1 1 0 002 0v-1h18v1a1 1 0 001 1zm10-1a1 1 0 001-1v-1.5a2.5 2.5 0 00-4-2 2.5 2.5 0 00-4 2V38a1 1 0 002 0v-1.5a.5.5 0 011 0 1 1 0 002 0 .5.5 0 011 0V38a1 1 0 001 1zm4 7H36a1 1 0 000 2h10v2H27v-2h5a1 1 0 000-2h-6a1 1 0 00-.283.041l-6 1.77a1 1 0 00-.066 1.9l6 2.231A1.015 1.015 0 0026 52h27a3 3 0 000-6zm-5 2h2v2h-2zm-23 .338v1.223l-1.836-.682zM53 50h-1v-2h1a1 1 0 010 2zm2 4H3a1 1 0 00-1 1v6a1 1 0 001 1h12a1 1 0 000-2H4v-4h2v1a1 1 0 002 0v-1h2v1a1 1 0 002 0v-1h2v1a1 1 0 002 0v-1h2v1a1 1 0 002 0v-1h2v1a1 1 0 002 0v-1h2v1a1 1 0 002 0v-1h2v1a1 1 0 002 0v-1h2v1a1 1 0 002 0v-1h2v1a1 1 0 002 0v-1h2v1a1 1 0 002 0v-1h2v1a1 1 0 002 0v-1h2v1a1 1 0 002 0v-1h2v4H19a1 1 0 000 2h36a1 1 0 001-1v-6a1 1 0 00-1-1z"/></svg>

<?xml version="1.0"?>
<svg xmlns="http://www.w3.org/2000/svg" viewBox="0 0 64 64" width="512" height="512"><g id="Outline"><g><path d="M7,44H47a1,1,0,0,0,0-2H7a3,3,0,0,1,0-6h4a1,1,0,0,0,1-1V29a1,1,0,0,0-2,0v5H7a4.98,4.98,0,0,0-3,1V7A3,3,0,0,1,7,4h3V25a1,1,0,0,0,2,0V8H49a1,1,0,0,0,0-2H12V3a1,1,0,0,0-1-1H7A5.006,5.006,0,0,0,2,7V39A5.006,5.006,0,0,0,7,44Z"/><path d="M57,2H53a1,1,0,0,0-1,1V35a1,1,0,0,0,1,1h4a3,3,0,0,1,0,6H51a1,1,0,0,0,0,2h6a5.006,5.006,0,0,0,5-5V7A5.006,5.006,0,0,0,57,2Zm0,32H54V4h3a3,3,0,0,1,3,3V35A4.98,4.98,0,0,0,57,34Z"/><path d="M40,19a1,1,0,0,0-.375-.781l-10-8a1,1,0,0,0-1.249,0l-10,8c-.013.011-.018.028-.03.039a2.672,2.672,0,0,0-.251.33A.98.98,0,0,0,18,19V31a1,1,0,0,0,1,1H39a1,1,0,0,0,1-1ZM24,30V26h2v4Zm14,0H28V25a1,1,0,0,0-1-1H23a1,1,0,0,0-1,1v5H20V20H33a1,1,0,0,0,0-2H21.851L29,12.281l9,7.2Z"/><path d="M30,23v4a1,1,0,0,0,1,1h4a1,1,0,0,0,1-1V23a1,1,0,0,0-1-1H31A1,1,0,0,0,30,23Zm2,1h2v2H32Z"/><path d="M43,30a1,1,0,0,0,0,2h4a1,1,0,0,0,0-2H46V12h1a1,1,0,0,0,0-2H43a1,1,0,0,0,0,2h1V30Z"/><path d="M39,40a1,1,0,0,0,1-1V35a1,1,0,0,0-2,0v1H20V35a1,1,0,0,0-2,0v4a1,1,0,0,0,2,0V38H38v1A1,1,0,0,0,39,40Z"/><path d="M49,39a1,1,0,0,0,1-1V36.5a2.5,2.5,0,0,0-4-2,2.5,2.5,0,0,0-4,2V38a1,1,0,0,0,2,0V36.5a.5.5,0,0,1,1,0,1,1,0,0,0,2,0,.5.5,0,0,1,1,0V38A1,1,0,0,0,49,39Z"/><path d="M53,46H36a1,1,0,0,0,0,2H46v2H27V48h5a1,1,0,0,0,0-2H26a1,1,0,0,0-.283.041l-6,1.77a1,1,0,0,0-.066,1.9l6,2.231A1.015,1.015,0,0,0,26,52H53a3,3,0,0,0,0-6Zm-5,2h2v2H48Zm-23,.338v1.223l-1.836-.682ZM53,50H52V48h1a1,1,0,0,1,0,2Z"/><path d="M55,54H3a1,1,0,0,0-1,1v6a1,1,0,0,0,1,1H15a1,1,0,0,0,0-2H4V56H6v1a1,1,0,0,0,2,0V56h2v1a1,1,0,0,0,2,0V56h2v1a1,1,0,0,0,2,0V56h2v1a1,1,0,0,0,2,0V56h2v1a1,1,0,0,0,2,0V56h2v1a1,1,0,0,0,2,0V56h2v1a1,1,0,0,0,2,0V56h2v1a1,1,0,0,0,2,0V56h2v1a1,1,0,0,0,2,0V56h2v1a1,1,0,0,0,2,0V56h2v1a1,1,0,0,0,2,0V56h2v1a1,1,0,0,0,2,0V56h2v4H19a1,1,0,0,0,0,2H55a1,1,0,0,0,1-1V55A1,1,0,0,0,55,54Z"/></g></g></svg>
